www/assets/icons/currency_pound.svg

<svg xmlns="http://www.w3.org/2000/svg" width="24" height="24" viewBox="0 0 24 24" fill='currentColor'><path d="M14 21.25c1.93 0 3.62-1.17 4-3l-1.75-.88c-.25 1.09-.92 1.88-2.25 1.88H9.1c.83-1 1.5-2.34 1.5-4 0-.35-.03-.69-.08-1H14v-2H9.82C9 10.67 8 9.85 8 8.25a3.5 3.5 0 0 1 6.78-1.22l1.85-.78c-.8-2.05-2.79-3.5-5.13-3.5-3.04 0-5.5 2.46-5.5 5.5 0 1.78.79 2.9 1.49 4H6v2h2.47c.08.31.13.64.13 1 0 2.7-2.6 4-2.6 4v2z"/></svg>

<svg width="24" height="24" viewBox="0 0 24 24" xmlns="http://www.w3.org/2000/svg" fill='currentColor'><path d="M14 21.25C15.93 21.25 17.62 20.08 18 18.25L16.25 17.37C16 18.46 15.33 19.25 14 19.25H9.1C9.93 18.25 10.6 16.91 10.6 15.25C10.6 14.9 10.57 14.56 10.52 14.25H14V12.25H9.82C9 10.67 8 9.85 8 8.25C8 6.32 9.57 4.75 11.5 4.75C13 4.75 14.29 5.7 14.78 7.03L16.63 6.25C15.83 4.2 13.84 2.75 11.5 2.75C8.46 2.75 6 5.21 6 8.25C6 10.03 6.79 11.15 7.49 12.25H6V14.25H8.47C8.55 14.56 8.6 14.89 8.6 15.25C8.6 17.95 6 19.25 6 19.25V21.25H14Z"/></svg>
